X: 25
T: Star Of Munster, The
Z: UPipes & harp
S: https://thesession.org/tunes/197#setting49964
R: reel
M: 4/4
L: 1/8
K: Ador
|:cBAc BAGB|AGEF GEDG|EAAG ABcd|eaaf gfed|
cBAc BAGB|AGEF GEDG|EAAG ABcd|1 ecdB A2 AB:|2 ecdB A2 Bd||
|:eaab ageg|agbg agef|g2 ga gedg|eaaf gede|eaab ageg|
agbg agef|g2 ge a2 ga|1 b2 ba ged2:|2 b2 ba gedB|c3 AcB AG | BA7||

